communes/592.svg

<?xml version="1.0" encoding="UTF-8" standalone="no"?>
<svg
   xmlns:dc="http://purl.org/dc/elements/1.1/"
   xmlns:cc="http://web.resource.org/cc/"
   xmlns:rdf="http://www.w3.org/1999/02/22-rdf-syntax-ns#"
   xmlns:svg="http://www.w3.org/2000/svg"
   xmlns="http://www.w3.org/2000/svg"
   xmlns:xlink="http://www.w3.org/1999/xlink"
   xmlns:sodipodi="http://sodipodi.sourceforge.net/DTD/sodipodi-0.dtd"
   xmlns:inkscape="http://www.inkscape.org/namespaces/inkscape"
   height="763"
   width="603"
   version="1.0"
   id="svg20"
   sodipodi:version="0.32"
   inkscape:version="0.44.1"
   sodipodi:docname="Schwanden bei Brienz-coat of arms.svg"
   sodipodi:docbase="F:\Mis Documentos\Mis imágenes\Encyclopédie\Escudos de Suiza">
  <metadata
     id="metadata31">
    <rdf:RDF>
      <cc:Work
         rdf:about="">
        <dc:format>image/svg+xml</dc:format>
        <dc:type
           rdf:resource="http://purl.org/dc/dcmitype/StillImage" />
        <dc:date>07-AUG-2006</dc:date>
        <dc:creator>
          <cc:Agent>
            <dc:title>Jérôme BLUM (wagner51)</dc:title>
          </cc:Agent>
        </dc:creator>
        <cc:license
           rdf:resource="http://creativecommons.org/licenses/GPL/2.0/" />
        <dc:coverage />
        <dc:description>Gabarit pour le Projet:Blasons de WIkipédia</dc:description>
        <dc:subject>
          <rdf:Bag>
            <rdf:li>blason suisse modèle gabarit projet blasons</rdf:li>
          </rdf:Bag>
        </dc:subject>
        <dc:language>fr</dc:language>
        <dc:title>Gabrit d'un blason suisse</dc:title>
      </cc:Work>
      <cc:License
         rdf:about="http://creativecommons.org/licenses/GPL/2.0/">
        <cc:permits
           rdf:resource="http://web.resource.org/cc/Reproduction" />
        <cc:permits
           rdf:resource="http://web.resource.org/cc/Distribution" />
        <cc:requires
           rdf:resource="http://web.resource.org/cc/Notice" />
        <cc:permits
           rdf:resource="http://web.resource.org/cc/DerivativeWorks" />
        <cc:requires
           rdf:resource="http://web.resource.org/cc/ShareAlike" />
        <cc:requires
           rdf:resource="http://web.resource.org/cc/SourceCode" />
      </cc:License>
    </rdf:RDF>
  </metadata>
  <defs
     id="defs29">
    <linearGradient
       id="linearGradient2893">
      <stop
         style="stop-color:#ffffff;stop-opacity:0.3137255;"
         offset="0"
         id="stop2895" />
      <stop
         id="stop2897"
         offset="0.19"
         style="stop-color:#ffffff;stop-opacity:0.25098041;" />
      <stop
         style="stop-color:#6b6b6b;stop-opacity:0.1254902;"
         offset="0.60000002"
         id="stop2901" />
      <stop
         style="stop-color:#000000;stop-opacity:0.1254902;"
         offset="1"
         id="stop2899" />
    </linearGradient>
    <linearGradient
       id="linearGradient2955">
      <stop
         style="stop-color:white;stop-opacity:0;"
         offset="0"
         id="stop2965" />
      <stop
         style="stop-color:black;stop-opacity:0.64583331;"
         offset="1"
         id="stop2959" />
    </linearGradient>
    <radialGradient
       inkscape:collect="always"
       xlink:href="#linearGradient2893"
       id="radialGradient3236"
       gradientUnits="userSpaceOnUse"
       gradientTransform="matrix(1.215027,1.531577e-24,1.464684e-23,1.266667,-839.1924,-490.4894)"
       cx="858.04236"
       cy="579.93323"
       fx="858.04236"
       fy="579.93323"
       r="300" />
  </defs>
  <sodipodi:namedview
     inkscape:window-height="682"
     inkscape:window-width="1024"
     inkscape:pageshadow="2"
     inkscape:pageopacity="0.0"
     guidetolerance="10.0"
     gridtolerance="10.0"
     objecttolerance="10.0"
     borderopacity="1.0"
     bordercolor="#666666"
     pagecolor="#ffffff"
     id="base"
     inkscape:zoom="0.31316685"
     inkscape:cx="341.41545"
     inkscape:cy="277.21419"
     inkscape:window-x="-4"
     inkscape:window-y="-4"
     inkscape:current-layer="layer2"
     showgrid="true"
     showguides="true"
     inkscape:guide-bbox="true" />
  <desc
     id="desc22">Coat of Arms of Canton of Freiburg (Fribourg)</desc>
  <g
     inkscape:groupmode="layer"
     id="layer1"
     inkscape:label="Fond écu"
     sodipodi:insensitive="true">
    <path
       id="path1899"
       d="M 1.5,1.49998 L 1.5,460.3679 C 1.5,626.6785 135.81456,761.5 301.49999,761.5 C 467.18543,761.5 601.5,626.6785 601.5,460.3679 L 601.5,1.49998 L 1.5,1.49998 z "
       style="fill:#e20909;fill-opacity:1" />
  </g>
  <g
     inkscape:groupmode="layer"
     id="layer2"
     inkscape:label="Meubles"
     sodipodi:insensitive="true">
    <path
       style="fill:white;fill-opacity:1;fill-rule:evenodd;stroke:black;stroke-width:4.15432119px;stroke-linecap:butt;stroke-linejoin:miter;stroke-opacity:1"
       d="M 183.25,229.78125 L 155.40625,283.4375 L 125.21875,343.59375 C 134.58592,369.52107 133.11654,392.66832 116.65625,421.375 C 85.170609,476.2859 159.30653,494.25658 121.53125,549.6875 C 102.72231,577.28748 97.810745,596.9577 126.84375,641.71875 C 136.83744,657.12627 131.12155,681.85217 119.5625,699.8125 C 139.207,714.87517 160.74751,727.56472 183.78125,737.4375 C 193.25425,716.89496 197.44641,702.56069 200.96875,676.34375 C 205.88369,639.76201 175.61322,613.70759 175.71875,587.5625 C 180.12577,542.56593 202.19486,534.71487 199.75,504.46875 C 196.59683,465.45906 178.1813,465.63726 178.96875,423.8125 C 188.54035,381.24384 219.02027,360.84719 203,320.78125 C 185.13471,276.10087 187.03692,254.72975 183.25,229.78125 z "
       id="path9449" />
    <path
       style="fill:white;fill-opacity:1;fill-rule:evenodd;stroke:black;stroke-width:4.15432119px;stroke-linecap:butt;stroke-linejoin:miter;stroke-opacity:1"
       d="M 301.65625,1.5 L 254.5,92.40625 C 254.37489,104.5271 254.79089,118.51393 258.78125,130.59375 C 282.16064,201.36938 227.11961,238.93414 254.71875,280.0625 C 310.92705,363.82425 221.63845,391.09933 257.96875,460.0625 C 299.98783,539.82434 221.69002,567.70405 259.21875,633.625 C 285.05022,678.99913 256.54142,711.23008 251.34375,757.28125 C 267.65758,760.0382 284.4052,761.5 301.5,761.5 C 310.5028,761.5 319.4177,761.06079 328.21875,760.28125 C 333.95535,707.56255 356.7842,689.77563 341.875,649.875 C 294.02469,557.30273 374.95559,520.89931 338.21875,463.3125 C 307.20724,414.28611 332.30709,394.88016 344.75,371.28125 C 372.28488,319.05944 330.32822,293.09907 325.1875,261.71875 C 316.55544,209.02634 347.75299,204.58479 350.03125,173.75 C 352.77627,136.59742 323.60444,122.51684 339.59375,74.59375 L 301.71875,1.5 L 301.65625,1.5 z "
       id="path10336" />
    <path
       style="fill:white;fill-opacity:1;fill-rule:evenodd;stroke:black;stroke-width:4.15432119px;stroke-linecap:butt;stroke-linejoin:miter;stroke-opacity:1"
       d="M 409.5625,209.625 C 381.83792,265.25015 443.07373,303.41424 411.71875,363.0625 C 383.05822,417.58493 409.9146,439.30729 419.21875,477.375 C 431.44987,527.41856 368.94229,552.96625 417.46875,639.5 C 434.54328,669.94782 403.42749,708.01823 403.34375,743.6875 C 431.92036,733.33626 458.48622,718.78033 482.28125,700.71875 C 486.50133,673.21207 490.99825,640.51213 482.09375,622.1875 C 445.81191,547.52306 503.19738,519.67393 482.6875,472.875 C 449.30796,396.71045 481.81162,384.32125 486.9375,358.96875 L 409.5625,209.625 z "
       id="path11223" />
    <path
       style="fill:#fcef3c;fill-opacity:1;fill-rule:evenodd;stroke:black;stroke-width:3;stroke-linecap:butt;stroke-linejoin:miter;stroke-miterlimit:4;stroke-dasharray:none;stroke-opacity:1"
       d="M 1.5,1.5 L 1.5,460.375 C 1.5,492.51495 6.5231036,523.45785 15.8125,552.5 L 301.65625,1.5 L 1.5,1.5 z M 301.71875,1.5 L 587.1875,552.46875 C 596.47109,523.43481 601.5,492.50448 601.5,460.375 L 601.5,1.5 L 301.71875,1.5 z "
       id="path8562" />
  </g>
  <g
     inkscape:groupmode="layer"
     id="layer3"
     inkscape:label="Reflet final"
     style="display:inline"
     sodipodi:insensitive="true">
    <path
       style="fill:url(#radialGradient3236);fill-opacity:1"
       d="M 1.5,1.5 L 1.5,460.3679 C 1.5,626.67854 135.81454,761.5 301.49993,761.5 C 467.1854,761.5 601.5,626.67854 601.5,460.3679 L 601.5,1.5 L 1.5,1.5 z "
       id="path2346" />
  </g>
  <g
     inkscape:groupmode="layer"
     id="layer4"
     inkscape:label="Contour final"
     style="display:inline"
     sodipodi:insensitive="true">
    <path
       style="fill:none;fill-opacity:1;stroke:black;stroke-width:3;stroke-miterlimit:4;stroke-dasharray:none;stroke-opacity:1"
       d="M 1.5,1.5 L 1.5,460.36794 C 1.5,626.67854 135.81454,761.5 301.49993,761.5 C 467.1854,761.5 601.5,626.67854 601.5,460.36794 L 601.5,1.5 L 1.5,1.5 z "
       id="path3239" />
  </g>
</svg>

<?xml version="1.0" encoding="UTF-8"?>
<svg version="1.0" viewBox="0 0 603 763" xmlns="http://www.w3.org/2000/svg" xmlns:cc="http://web.resource.org/cc/" xmlns:dc="http://purl.org/dc/elements/1.1/" xmlns:rdf="http://www.w3.org/1999/02/22-rdf-syntax-ns#" xmlns:xlink="http://www.w3.org/1999/xlink">
<metadata>
<rdf:RDF>
<cc:Work rdf:about="">
<dc:format>image/svg+xml</dc:format>
<dc:type rdf:resource="http://purl.org/dc/dcmitype/StillImage"/>
<dc:date>07-AUG-2006</dc:date>
<dc:creator>
<cc:Agent>
<dc:title>Jérôme BLUM (wagner51)</dc:title>
</cc:Agent>
</dc:creator>
<cc:license rdf:resource="http://creativecommons.org/licenses/GPL/2.0/"/>
<dc:coverage/>
<dc:description>Gabarit pour le Projet:Blasons de WIkipédia</dc:description>
<dc:subject>
<rdf:Bag>
<rdf:li>blason suisse modèle gabarit projet blasons</rdf:li>
</rdf:Bag>
</dc:subject>
<dc:language>fr</dc:language>
<dc:title>Gabrit d'un blason suisse</dc:title>
</cc:Work>
<cc:License rdf:about="http://creativecommons.org/licenses/GPL/2.0/">
<cc:permits rdf:resource="http://web.resource.org/cc/Reproduction"/>
<cc:permits rdf:resource="http://web.resource.org/cc/Distribution"/>
<cc:requires rdf:resource="http://web.resource.org/cc/Notice"/>
<cc:permits rdf:resource="http://web.resource.org/cc/DerivativeWorks"/>
<cc:requires rdf:resource="http://web.resource.org/cc/ShareAlike"/>
<cc:requires rdf:resource="http://web.resource.org/cc/SourceCode"/>
</cc:License>
</rdf:RDF>
</metadata>
<defs>
<radialGradient id="a" cx="858.04" cy="579.93" r="300" gradientTransform="matrix(1.215 1.5316e-24 1.4647e-23 1.2667 -839.19 -490.49)" gradientUnits="userSpaceOnUse">
<stop stop-color="#fff" stop-opacity=".31373" offset="0"/>
<stop stop-color="#fff" stop-opacity=".25098" offset=".19"/>
<stop stop-color="#6b6b6b" stop-opacity=".12549" offset=".6"/>
<stop stop-opacity=".12549" offset="1"/>
</radialGradient>
</defs>
<desc>Coat of Arms of Canton of Freiburg (Fribourg)</desc>
<path d="m1.5 1.5v458.87c0 166.31 134.31 301.13 300 301.13 165.69 0 300-134.82 300-301.13v-458.87h-600z" fill="#e20909"/>
<g fill-rule="evenodd" stroke="#000">
<path d="m183.25 229.78-27.844 53.656-30.188 60.156c9.3672 25.927 7.8978 49.075-8.5625 77.781-31.486 54.911 42.65 72.882 4.875 128.31-18.809 27.6-23.721 47.27 5.3125 92.031 9.9937 15.408 4.2778 40.133-7.2812 58.094 19.644 15.063 41.185 27.752 64.219 37.625 9.473-20.543 13.665-34.877 17.188-61.094 4.9149-36.582-25.356-62.636-25.25-88.781 4.407-44.997 26.476-52.848 24.031-83.094-3.1532-39.01-21.569-38.831-20.781-80.656 9.5716-42.569 40.052-62.965 24.031-103.03-17.865-44.68-15.963-66.052-19.75-91z" fill="#fff" stroke-width="4.1543px"/>
<path d="m301.66 1.5-47.156 90.906c-0.12511 12.121 0.29089 26.108 4.2812 38.188 23.379 70.776-31.662 108.34-4.0625 149.47 56.208 83.762-33.08 111.04 3.25 180 42.019 79.762-36.279 107.64 1.25 173.56 25.831 45.374-2.6773 77.605-7.875 123.66 16.314 2.757 33.061 4.2188 50.156 4.2188 9.0028 0 17.918-0.43921 26.719-1.2188 5.7366-52.719 28.565-70.506 13.656-110.41-47.85-92.572 33.081-128.98-3.6562-186.56-31.012-49.026-5.9117-68.432 6.5312-92.031 27.535-52.222-14.422-78.182-19.562-109.56-8.6321-52.692 22.565-57.134 24.844-87.969 2.745-37.153-26.427-51.233-10.438-99.156l-37.875-73.094h-0.0625z" fill="#fff" stroke-width="4.1543px"/>
<path d="m409.56 209.62c-27.725 55.625 33.511 93.789 2.1562 153.44-28.661 54.522-1.8042 76.245 7.5 114.31 12.231 50.044-50.276 75.591-1.75 162.12 17.075 30.448-14.041 68.518-14.125 104.19 28.577-10.351 55.142-24.907 78.938-42.969 4.2201-27.507 8.717-60.207-0.1875-78.531-36.282-74.664 21.104-102.51 0.59375-149.31-33.38-76.165-0.87588-88.554 4.25-113.91l-77.375-149.34z" fill="#fff" stroke-width="4.1543px"/>
<path d="m1.5 1.5v458.88c0 32.14 5.0231 63.083 14.312 92.125l285.84-551h-300.16zm300.22 0 285.47 550.97c9.2836-29.034 14.312-59.964 14.312-92.094v-458.88h-299.78z" fill="#fcef3c" stroke-width="3"/>
</g>
<g>
<path d="m1.5 1.5v458.87c0 166.31 134.31 301.13 300 301.13 165.69 0 300-134.82 300-301.13v-458.87h-600z" fill="url(#a)"/>
<path d="m1.5 1.5v458.87c0 166.31 134.31 301.13 300 301.13 165.69 0 300-134.82 300-301.13v-458.87h-600z" fill="none" stroke="#000" stroke-width="3"/>
</g>
</svg>
